X:3351
L:1/16
M:6/8
K:D
 A2 | B3 A (Bd) e2 e2 a2 | f3 e{fe} d2{d} B4 g2 | f2{g} a2({g} fe) d2 d2 (F^G) | A6- A4 (Bd) | 
 B3 A (Bd) e3 f g2 |{g} f2 e3 d{d} B4 g2 | (f>g){fg} (ag) (fe) d2 d2 (F^G) | A6- A4 |] (fg) | 
 a2 a2 d'2 b2 b2 (d'=c') | b3 a g2 B4 g2 | f3 e (fa) b a3 f2 |{g} a6- a4 a2 | b3 a g2 a2 a2 g2 | 
 f3 e{fe} d2 B4 g2 | f a3 (fe) d2 d2 (F^G) | A6- A4 |]

